X: 141
T:Dowd's No.9
M:C
L:1/8
Q:224
N:Music from Ireland No.4 , Dulmer, Sharpley
D:Session from the heart
K:D
DF ~F2 GFEF | D2 FA dABG | F2 AF GFGB | AFDB, A,B,CE | 
DF ~F2 GFEF |D2 FA d3 A | F2 AF GFGB | AFEG FD D2 :|
|: fd (3ddd g2 ag | fd (3ddd cdeg | fd (3ddd gfec | dcde fdde | 
fgaf gfeg | fedf ecAF | GABG FAdB | AFDB, A,B,CE :|
